public/new/component-9.svg

<svg fill="none" height="24" viewBox="0 0 24 24" width="24" xmlns="http://www.w3.org/2000/svg" xmlns:xlink="http://www.w3.org/1999/xlink"><linearGradient id="a" gradientUnits="userSpaceOnUse" x1="5.4254" x2="18.575" y1="18.5748" y2="5.42521"><stop offset="0" stop-color="#9945ff"/><stop offset=".2" stop-color="#7962e7"/><stop offset="1" stop-color="#00d18c"/></linearGradient><clipPath id="b"><path d="m0 0h24v24h-24z"/></clipPath><g clip-path="url(#b)"><path d="m12 24c6.6274 0 12-5.3726 12-12 0-6.62742-5.3726-12-12-12-6.62742 0-12 5.37258-12 12 0 6.6274 5.37258 12 12 12z" fill="#000"/><path clip-rule="evenodd" d="m7.40538 15.3078c.04518-.0497.1002-.0894.16158-.1165.06132-.0272.12774-.0413.19482-.0413l10.99682.009c.0468.0001.0927.0138.1318.0394.0392.0257.0702.0621.089.105.0189.0428.0249.0902.0173.1364s-.0283.0893-.0599.1239l-2.3418 2.5785c-.0452.0497-.1003.0894-.1616.1165-.0615.0273-.1279.0413-.1951.0413l-10.9965-.009c-.04683-.0001-.09263-.0138-.13182-.0395-.03921-.0255-.07012-.062-.08898-.1048-.01888-.0429-.0249-.0904-.01733-.1366.00756-.0462.02838-.0892.05993-.1238zm11.53142-2.1465c.0316.0346.0523.0776.0599.1238s.0016.0937-.0173.1366c-.0188.0428-.0498.0793-.089.1048-.0391.0257-.085.0394-.1318.0395l-10.99652.009c-.06714 0-.13356-.014-.195-.0413-.06144-.0271-.11652-.0668-.1617-.1165l-2.34178-2.58c-.03155-.0346-.05237-.0776-.05993-.1238-.00757-.0462-.00155-.0937.01733-.1365.01886-.0429.04977-.0793.08898-.105.03919-.0256.08499-.0393.13182-.0394l10.9968-.009c.0671.0001.1335.0141.1949.0413.0613.0272.1164.0668.1615.1165zm-11.53142-7.30349c.04518-.04967.1002-.08935.16158-.11653.06132-.02717.12774-.04123.19482-.04127l10.99682.009c.0468.0001.0927.01379.1318.03941.0392.02563.0702.06209.089.10495.0189.04287.0249.09028.0173.13649s-.0283.08923-.0599.12385l-2.3418 2.5785c-.0452.04968-.1003.0894-.1616.11658-.0615.02718-.1279.04122-.1951.04122l-10.9965-.009c-.04683-.00012-.09263-.0138-.13182-.03942-.03921-.02562-.07012-.0621-.08898-.10494-.01888-.04284-.0249-.0903-.01733-.1365.00756-.0462.02838-.08922.05993-.12384z" fill="url(#a)" fill-rule="evenodd"/></g></svg>

<svg width="24" height="24" viewBox="0 0 24 24" fill="none" xmlns="http://www.w3.org/2000/svg">
<g clip-path="url(#clip0_181_17913)">
<path d="M12 24C18.6274 24 24 18.6274 24 12C24 5.37258 18.6274 0 12 0C5.37258 0 0 5.37258 0 12C0 18.6274 5.37258 24 12 24Z" fill="black"/>
<path fill-rule="evenodd" clip-rule="evenodd" d="M7.40538 15.3078C7.45056 15.2581 7.50558 15.2184 7.56696 15.1913C7.62828 15.1641 7.6947 15.15 7.76178 15.15L18.7586 15.159C18.8054 15.1591 18.8513 15.1728 18.8904 15.1984C18.9296 15.2241 18.9606 15.2605 18.9794 15.3034C18.9983 15.3462 19.0043 15.3936 18.9967 15.4398C18.9891 15.486 18.9684 15.5291 18.9368 15.5637L16.595 18.1422C16.5498 18.1919 16.4947 18.2316 16.4334 18.2587C16.3719 18.286 16.3055 18.3 16.2383 18.3L5.2418 18.291C5.19497 18.2909 5.14917 18.2772 5.10998 18.2515C5.07077 18.226 5.03986 18.1895 5.021 18.1467C5.00212 18.1038 4.9961 18.0563 5.00367 18.0101C5.01123 17.9639 5.03205 17.9209 5.0636 17.8863L7.40538 15.3078ZM18.9368 13.1613C18.9684 13.1959 18.9891 13.2389 18.9967 13.2851C19.0043 13.3313 18.9983 13.3788 18.9794 13.4217C18.9606 13.4645 18.9296 13.501 18.8904 13.5265C18.8513 13.5522 18.8054 13.5659 18.7586 13.566L7.76208 13.575C7.69494 13.575 7.62852 13.561 7.56708 13.5337C7.50564 13.5066 7.45056 13.4669 7.40538 13.4172L5.0636 10.8372C5.03205 10.8026 5.01123 10.7596 5.00367 10.7134C4.9961 10.6672 5.00212 10.6197 5.021 10.5769C5.03986 10.534 5.07077 10.4976 5.10998 10.4719C5.14917 10.4463 5.19497 10.4326 5.2418 10.4325L16.2386 10.4235C16.3057 10.4236 16.3721 10.4376 16.4335 10.4648C16.4948 10.492 16.5499 10.5316 16.595 10.5813L18.9368 13.1613ZM7.40538 5.85781C7.45056 5.80814 7.50558 5.76846 7.56696 5.74128C7.62828 5.71411 7.6947 5.70005 7.76178 5.70001L18.7586 5.70901C18.8054 5.70911 18.8513 5.7228 18.8904 5.74842C18.9296 5.77405 18.9606 5.81051 18.9794 5.85337C18.9983 5.89624 19.0043 5.94365 18.9967 5.98986C18.9891 6.03607 18.9684 6.07909 18.9368 6.11371L16.595 8.69221C16.5498 8.74189 16.4947 8.78161 16.4334 8.80879C16.3719 8.83597 16.3055 8.85001 16.2383 8.85001L5.2418 8.84101C5.19497 8.84089 5.14917 8.82721 5.10998 8.80159C5.07077 8.77597 5.03986 8.73949 5.021 8.69665C5.00212 8.65381 4.9961 8.60635 5.00367 8.56015C5.01123 8.51395 5.03205 8.47093 5.0636 8.43631L7.40538 5.85781Z" fill="url(#paint0_linear_181_17913)"/>
</g>
<defs>
<linearGradient id="paint0_linear_181_17913" x1="5.4254" y1="18.5748" x2="18.575" y2="5.42521" gradientUnits="userSpaceOnUse">
<stop stop-color="#9945FF"/>
<stop offset="0.2" stop-color="#7962E7"/>
<stop offset="1" stop-color="#00D18C"/>
</linearGradient>
<clipPath id="clip0_181_17913">
<rect width="24" height="24" fill="white"/>
</clipPath>
</defs>
</svg>
